X: 12017
T: Er Pasker
R: mazurka
M: 3/4
K: Adorian
M:6/4
e2 fe d2 B2 ee d2|e2 fe d2 B2 ee d2|e2 fe d2 cd B4|
Be fe d2 B2 ee d2|e2 fe d2 B2 ee d2|e2 fe d2 cd B4||
A2 Bc d2 B2 ee d2|e2 cd e2 f2 e2 fg|a2 gf d2 f2 e4|de ed c3 B A4|
A2 Bc d2 B2 ee d2|e2 cd e2 f2 e2 fg|a2 gf d2 f2 e4|de ed c3 B A4||

